icon/gr/youtube.svg

<svg xmlns="http://www.w3.org/2000/svg" viewBox="0 0 24 24" height="1em" width="1em">
  <path fill="#CD201F" fill-rule="evenodd" d="M9.522,15.553 L9.52125,8.80975 L16.00575,12.193 L9.522,15.553 Z M23.76,7.64125 C23.76,7.64125 23.52525,5.9875 22.806,5.25925 C21.89325,4.303 20.87025,4.2985 20.4015,4.243 C17.043,4 12.00525,4 12.00525,4 L11.99475,4 C11.99475,4 6.957,4 3.5985,4.243 C3.129,4.2985 2.10675,4.303 1.19325,5.25925 C0.474,5.9875 0.24,7.64125 0.24,7.64125 C0.24,7.64125 0,9.58375 0,11.5255 L0,13.3465 C0,15.289 0.24,17.23075 0.24,17.23075 C0.24,17.23075 0.474,18.8845 1.19325,19.61275 C2.10675,20.569 3.306,20.539 3.84,20.63875 C5.76,20.82325 12,20.88025 12,20.88025 C12,20.88025 17.043,20.87275 20.4015,20.62975 C20.87025,20.5735 21.89325,20.569 22.806,19.61275 C23.52525,18.8845 23.76,17.23075 23.76,17.23075 C23.76,17.23075 24,15.289 24,13.3465 L24,11.5255 C24,9.58375 23.76,7.64125 23.76,7.64125 L23.76,7.64125 Z"/>
</svg>

<svg xmlns="http://www.w3.org/2000/svg" width="24" height="24"><path fill="#CD201F" fill-rule="evenodd" d="M9.522 15.553V8.81l6.484 3.383-6.484 3.36ZM23.76 7.641s-.235-1.654-.954-2.382c-.913-.956-1.936-.96-2.405-1.016C17.043 4 12.005 4 12.005 4h-.01s-5.038 0-8.396.243c-.47.055-1.492.06-2.406 1.016C.474 5.987.24 7.641.24 7.641S0 9.584 0 11.525v1.822c0 1.942.24 3.884.24 3.884s.234 1.653.953 2.382c.914.956 2.113.926 2.647 1.026 1.92.184 8.16.241 8.16.241s5.043-.007 8.401-.25c.47-.056 1.492-.061 2.405-1.017.72-.729.954-2.382.954-2.382s.24-1.942.24-3.885v-1.82c0-1.942-.24-3.885-.24-3.885Z"/></svg>
